X:1
T:Title
L:1/8
M:4/4
K:F
V:1 treble nm="Grand Piano"
V:1
 z4 z2 A2 | AA z A E2 FE | D6 DE | F2 D2 BB G2 | E6 EF | G3 ^F GAcB | A6 G2 | GGG^F G2 A2 | F6 D2 | %9
 B,3 B, D2 FF | E6 A2 | AA z A E2 FE | D6 DE | F2 D2 BB G2 | E6 EF | G3 ^F GAcB | A6 G2 | %17
 GGG^F G2 A2 | F6 DE | F3 E F2 GG | E6 A2 | E2 G2 F2 EE | D6 z2 |] %23

